X:1
T:Ego dormivi
T:Leon Leoni
T:Ego dormivi
C:Leon Leoni
%%score [ 1 2 ] { ( 3 5 ) | 4 }
L:1/8
Q:1/4=120
M:4/4
K:C
V:1 alto1 nm="Cantus 1" snm="C 1"
V:2 alto1 nm="Cantus 2" snm="C 2"
V:3 treble nm="Partitura" snm="Part."
V:5 treble 
V:4 bass 
V:1
 x8 | z2 z2 z2 x2 |: z8 | z8 | z8 | F8 | F4 F4 | G8 | A4 F4 | FGAB c4 | A4 G3 F | E2 D4 ^C2 | %12
w: |||||E-|go dor-|mi-|vi et|som- * * * *|num cœ- *||
 D3 F G2 A2 | ^G4 A4 |[M:3/2][Q:1/4=180] A4 A4 A4 | B2 G4 F2 E4 | ^F12 | D4 E4 ^F4 | G2 E4 A2 ^G4 | %19
w: pi et ex- sur-|re- xi,|Al- le- lu-|ia, Al- le- lu-|ia,|Al- le- lu-|ia, Al- le- lu-|
 A12 | A4 A4 A4 | B2 G4 F2 E4 |1[M:4/4][Q:1/4=120] ^F8 :|2[Q:1/4=120] ^F4 z2 A2 || c2 c2 B4 | A8 | %26
w: ia,|Al- le- lu-|ia, Al- le- lu-|ia.|ia, et|ex- sur- re-|xi,|
 z2 G2 c2 c2 | B4 A4 | z2 G2 c2 A2 | _BAGF E2 F2- | FE D4 ^C2 | D8 | D8 | D4 G4 | F6 E2 | E4 G4 | %36
w: et ex- sur-|re- xi,|et ex- sur-|re- * * * * *||xi,|quo-|ni- am|Do- mi-|nus su-|
 AGAB c4 | A4 E4 | FEFGAGAB | c4 A2 A2 | G4 E4 | ^F8 |[M:3/2][Q:1/4=180] F4 E4 ^F4 | G2 E4 A2 ^G4 | %44
w: sce- * * * *|pit, su-|sce- * * * * * * *|* pit, su-|sce- pit|me.|Al- le- lu-|ia, Al- le- lu-|
 A12 | z12 | z12 | A4 A4 A4 | B2 G4 F2 E4 |[M:4/4][Q:1/4=120] ^F8 | G8 | G4 G4 | F6 E2 | E4 G4 | %54
w: ia,|||Al- le- lu-|ia, Al- le- lu-|ia,|quo-|ni- am|Do- mi-|nus su-|
 AGAB c4 | A4 E4 | FEFGAGAB | c4 A2 A2 | G4 E4 | ^F8 |[M:3/2][Q:1/4=180] F4 E4 ^F4 | G2 E4 A2 ^G4 | %62
w: sce- * * * *|pit, su-|sce- * * * * * * *|* pit, su-|sce- pit|me.|Al- le- lu-|ia, Al- le- lu-|
 A12 | z12 | z12 | A4 A4 A4 | B2 G4 F2 E4 |[M:4/4][Q:1/4=120] ^F8 | D2 D2 GFGA | _BAGA B4 | %70
w: ia,|||Al- le- lu-|ia, Al- le- lu-|ia,|Al- le- lu- * * *||
 !fermata!A8 |] %71
w: ia.|
V:2
 x8 | z2 z2 z2 x2 |: F8 | F4 F4 | G8 | A8 | z8 | z4 E4 | FGAB c4 | A2 F2 FGAB | c6 _B2 | %11
w: ||E-|go dor-|mi-|vi||et|som- * * * *|num, et som- * * *|* num|
 A3 G/F/ E4 | ^F3 A c2 c2 | B4 A4 |[M:3/2] F4 E4 F4 | G2 E4 D2 ^C4 | D12 | A4 A4 A4 | B2 c4 c2 B4 | %19
w: cœ- * * *|pi et ex- sur-|re- xi,|Al- le- lu-|ia, Al- le- lu-|ia,|Al- le- lu-|ia, Al- le- lu-|
 A12 | F4 E4 F4 | G2 E4 D2 ^C4 |1[M:4/4] D8 :|2 D8 || z8 | z2 A2 c2 c2 | B4 A4 | z2 B2 c2 c2 | %28
w: ia,|Al- le- lu-|ia, Al- le- lu-|ia.|ia,||et ex- sur-|re- xi,|et ex- sur-|
 B4 A4 | z2 G2 cBAG | F2 G2 E4 | ^F8 | B8 | B4 c4 | A6 G2 | G4 E4 | FEFGAGAB | c4 G2 G2 | AGAB c4 | %39
w: re- xi,|et ex- * * *|* sur- re-|xi,|quo-|ni- am|Do- mi-|nus su-|sce- * * * * * * *|* pit, su-|sce- * * * *|
 A6 F2 | E2 D4 ^C2 | D8 |[M:3/2] A4 A4 A4 | B2 c4 c2 B4 | A12 | A4 B4 ^c4 | d2 G4 F2 E4 | %47
w: pit, su-|sce- * pit|me.|Al- le- lu-|ia, Al- le- lu-|ia,|Al- le- lu-|ia, Al- le- iu,|
 F4 E4 ^F4 | G2 E4 D2 ^C4 |[M:4/4] D8 | B8 | B4 c4 | A6 G2 | G4 E4 | FEFGAGAB | c4 G2 G2 | %56
w: Al- le- lu-|ia, Al- le- lu-|ia,|quo-|ni- am|Do- mi-|nus su-|sce- * * * * * * *|* pit, nus|
 AGAB c4 | A6 F2 | E2 D4 ^C2 | D8 |[M:3/2] A4 A4 A4 | B2 c4 c2 B4 | A12 | A4 B4 ^c4 | d2 G4 F2 E4 | %65
w: su- * * * *|sce- su-|sce- * pit|me.|Al- le- lu-|ia, Al- le- lu-|ia,|Al- le- lu-|ia, Al- le- iu,|
 F4 E4 ^F4 | G2 E4 D2 ^C4 |[M:4/4] D4 D2 D2 | GFGA _B3 A | G8 | ^F8 |] %71
w: Al- le- lu-|ia, Al- le- lu-|ia, Al- le-|lu- * * * * *||ia.|
V:3
 x8 | z2 z2 z2 x2 |: F8 | F4 F4 | G8 | A8 | F4 F4 | G8 | [CA]4 FGAB | c4 [CA]4 | [FA]4 [CG]4 | %11
 [A,E]8 | D3 [DFA] [EGc]2 [EAc]2 | [EB]4 A4 |[M:3/2] [FAd]4 [EA]4 [FAd]4 | G2 G4 A2 A4 | [DA]12 | %17
 [Ad]4 [Ae]4 [A^f]4 | [dg]2 e4 [ea]2 [e^g]4 | [^cea]12 | [DFA]4 [EA]4 [DFA]4 | G2 G4 A2 A4 |1 %22
[M:4/4] [A,D]8 :|2 [A,D]8 || c4 B4 | A4 c4 | B4 c4 | B4 c4 | B4 c4 | d4 c4 | d4 e4 | [^FAd]8 | %32
 [DG]8 | [DG]4 [CEG]4 | [CFA]6 [CEG]2 | [CEG]8 | [A,CF]8 | [Ac]4 [EGc]4 | [FAc]8 | [FAc]4 [FA]4 | %40
 [CEG]4 [EA]4 | [A,D^F]8 |[M:3/2] [DF]4 [A,E]4 [A,^F]4 | [DG]2 [CE]4 [EA]2 [E^G]4 | [^CEA]12 | %45
 [EA]4 [EB]4 [E^c]4 | [FAd]2 [DG]4 [DF]2 [CE]4 | [Af]4 [Ae]4 [A^f]4 | %48
 [Bdg]2 [Gce]4 [FAd]2 [EA^c]4 |[M:4/4] [Dd]8 | [DGB]8 | [B,DG]4 [CEG]4 | [CFA]6 [CEG]2 | [CEG]8 | %54
 [CF]8 | [FAc]4 [EGc]4 | [CF]8 | [CFA]4 [FAc]4 | [DGB]4 [EA]4 | [D^FA]8 | %60
[M:3/2] [DF]4 [A,E]4 [A,^F]4 | [DG]2 [CE]4 [EA]2 [E^G]4 | [^CEA]12 | [EA]4 [EB]4 [E^c]4 | %64
 [FAd]2 [DG]4 [DF]2 [CE]4 | [Af]4 [Ae]4 [A^f]4 | [Bdg]2 [Gce]4 [FAd]2 [EA^c]4 |[M:4/4] z4 D2 D2 | %68
 [DG_B]8 | [G_Bd]8 | [D^FAd]8 |] %71
V:4
 x8 | z2 z2 z2 x2 |: D,8 | D,4 D,4 | C,8 | F,,4 F,4 | F,4 D,4 | C,8 | F,,8- | F,,4 F,4 | %10
w: ||||||||||
 F,G,A,B, C2 G,2 | A,8 | D,3 D, C,2 A,,2 | E,4 A,,4 |[M:3/2] D,4 ^C,4 D,4 | G,,2 C,4 D,2 A,,4 | %16
w: ||||||
 D,12 | D,4 ^C,4 D,4 | G,,2 C,4 A,,2 E,4 | A,,12 | D,4 ^C,4 D,4 | G,,2 C,4 D,2 A,,4 |1 %22
w: ||||||
[M:4/4] D,8 :|2 D,4 D,4 || C,2 A,,2 E,4 | A,,4 A,,2 A,,2 | E,4 A,,2 A,2- | A,2 ^G,2 A,4 | %28
w: ||||||
 E,4 A,2 F,2 | G,4 A,4 | _B,4 A,4 | D,8 | G,8 | G,4 E,4 | F,6 C,2 | C,8 | F,,8 | F,,4 C,4 | F,,8- | %39
w: |||||||||||
 F,,4 F,4 | G,4 A,4 | D,8 |[M:3/2] D,4 ^C,4 D,4 | G,,2 C,4 A,,2 E,4 | A,,12 | A,4 ^G,4 A,4 | %46
w: |||||||
 D,2 G,4 D,2 A,4 | D,4 ^C,4 D,4 | G,,2 C,4 D,2 A,,4 |[M:4/4] D,8 | G,8 | G,4 E,4 | F,6 C,2 | C,8 | %54
w: ||||||||
 F,,8 | F,,4 C,4 | F,,8- | F,,4 F,4 | G,4 A,4 | D,8 |[M:3/2] D,4 ^C,4 D,4 | G,,2 C,4 A,,2 E,4 | %62
w: ||||||||
 A,,12 | A,4 ^G,4 A,4 | D,2 G,4 D,2 A,4 | D,4 ^C,4 D,4 | G,,2 C,4 D,2 A,,4 |[M:4/4] D,8 | %68
w: ||||||
 G,,6 G,,2 | G,,8 | D,8 |] %71
w: ||ia.|
V:5
 x8 | x8 |: x8 | x8 | F4 E4 | x8 | x8 | F4 E4 | x8 | x8 | x8 | x8 | x8 | x8 |[M:3/2] x12 | x12 | %16
 x12 | x12 | x12 | x12 | x12 | x12 |1[M:4/4] x8 :|2 x8 || x8 | x8 | x8 | x8 | x8 | x8 | x8 | x8 | %32
 x8 | x8 | x8 | x8 | x8 | x8 | x8 | x8 | x8 | x8 |[M:3/2] x12 | x12 | x12 | x12 | x12 | x12 | x12 | %49
[M:4/4] x8 | x8 | x8 | x8 | x8 | x8 | x8 | x8 | x8 | x8 | x8 |[M:3/2] x12 | x12 | x12 | x12 | x12 | %65
 x12 | x12 |[M:4/4] x8 | x8 | x8 | x8 |] %71

